flags/it-36.svg

<svg width="512" height="512" viewBox="0 0 512 512" fill="none" xmlns="http://www.w3.org/2000/svg">
<rect width="512" height="512" fill="var(--flag-palette-light-blue, #338af3)"/>
<path d="M304 344V360H272V344H240V360H208V344H176V408H336V344H304Z" fill="var(--flag-palette-white, #eeeeee)"/>
<path d="M248 352H245.7L269.7 328L264 322.3L234.3 352H224C221.878 352 219.843 352.843 218.343 354.343C216.843 355.843 216 357.878 216 360H226.3C224.804 361.5 223.964 363.531 223.964 365.65C223.964 367.768 224.804 369.8 226.3 371.3L237.7 360H256C256 357.878 255.157 355.843 253.657 354.343C252.157 352.843 250.122 352 248 352ZM304 360C304 357.878 303.157 355.843 301.657 354.343C300.157 352.843 298.122 352 296 352H288V328H280V352H272C269.878 352 267.843 352.843 266.343 354.343C264.843 355.843 264 357.878 264 360H282.3L293.7 371.3C295.196 369.8 296.036 367.768 296.036 365.65C296.036 363.531 295.196 361.5 293.7 360H304Z" fill="var(--flag-palette-black, #333333)"/>
<path d="M304 256C310.365 256 316.47 253.471 320.971 248.971C325.471 244.47 328 238.365 328 232C334.365 232 340.47 229.471 344.971 224.971C349.471 220.47 352 214.365 352 208C358.365 208 364.47 205.471 368.971 200.971C373.471 196.47 376 190.365 376 184H296C287 184 278.7 187 272 192V184C272 177.635 269.471 171.53 264.971 167.029C260.47 162.529 254.365 160 248 160C248 153.635 245.471 147.53 240.971 143.029C236.47 138.529 230.365 136 224 136C224 129.635 221.471 123.53 216.971 119.029C212.47 114.529 206.365 112 200 112V192C199.989 198.439 201.533 204.785 204.5 210.5C197.795 208.829 190.91 207.989 184 208C175.513 208 167.374 211.371 161.373 217.373C155.371 223.374 152 231.513 152 240C161.4 234.5 172.3 232 184 232L256 312C256 318.365 258.529 324.47 263.029 328.971C267.53 333.471 273.635 336 280 336C286.365 336 292.47 333.471 296.971 328.971C301.471 324.47 304 318.365 304 312L320 296L360 336C364.243 336 368.313 334.314 371.314 331.314C374.314 328.313 376 324.243 376 320C380.243 320 384.313 318.314 387.314 315.314C390.314 312.313 392 308.243 392 304L304 256Z" fill="var(--flag-palette-dark-yellow, #ffc635)"/>
</svg>

<svg xmlns="http://www.w3.org/2000/svg" width="512" height="512" fill="none"><path fill="var(--flag-palette-light-blue, #338af3)" d="M0 0h512v512H0z"/><path fill="var(--flag-palette-white, #eeeeee)" d="M304 344v16h-32v-16h-32v16h-32v-16h-32v64h160v-64z"/><path fill="var(--flag-palette-black, #333333)" d="M248 352h-2.3l24-24-5.7-5.7-29.7 29.7H224a8 8 0 0 0-8 8h10.3a8 8 0 0 0 0 11.3l11.4-11.3H256a8 8 0 0 0-8-8m56 8a8 8 0 0 0-8-8h-8v-24h-8v24h-8a8 8 0 0 0-8 8h18.3l11.4 11.3a8 8 0 0 0 0-11.3z"/><path fill="var(--flag-palette-dark-yellow, #ffc635)" d="M304 256a24 24 0 0 0 24-24 24 24 0 0 0 24-24 24 24 0 0 0 24-24h-80c-9 0-17.3 3-24 8v-8a24 24 0 0 0-24-24 24 24 0 0 0-24-24 24 24 0 0 0-24-24v80a40 40 0 0 0 4.5 18.5A84 84 0 0 0 184 208a32 32 0 0 0-32 32q14.3-8.1 32-8l72 80a24 24 0 0 0 48 0l16-16 40 40a16 16 0 0 0 16-16 16 16 0 0 0 16-16z"/></svg>
